src/assets/duotone/Strongbox2.svg

<svg width="24" height="24" viewBox="0 0 24 24"  xmlns="http://www.w3.org/2000/svg">
<path opacity="0.4" d="M16.1898 2H7.81978C4.17978 2 2.00977 4.17 2.00977 7.81V16.18C2.00977 19.82 4.17978 21.99 7.81978 21.99H16.1898C19.8298 21.99 21.9998 19.82 21.9998 16.18V7.81C21.9998 4.17 19.8298 2 16.1898 2Z" />
<path d="M16 9.23999H18C18.55 9.23999 19 8.78999 19 8.23999V8C19 6.34 17.66 5 16 5H8C6.34 5 5 6.34 5 8V8.5C5 9.05 5.45 9.5 6 9.5H7.34C8.65 9.5 9.84 10.44 9.97 11.75C10.12 13.25 8.95 14.51 7.48 14.51H6C5.45 14.51 5 14.96 5 15.51V16.01C5 17.67 6.34 19.01 8 19.01H16C17.66 19.01 19 17.67 19 16.01V15.76C19 15.21 18.55 14.76 18 14.76H16C15.59 14.76 15.25 14.42 15.25 14.01C15.25 13.6 15.59 13.26 16 13.26H18C18.55 13.26 19 12.81 19 12.26V11.75C19 11.2 18.55 10.75 18 10.75H16C15.59 10.75 15.25 10.42 15.25 10C15.25 9.58 15.59 9.23999 16 9.23999Z" />
<path d="M7 13H6C5.45 13 5 12.55 5 12C5 11.45 5.45 11 6 11H7C7.55 11 8 11.45 8 12C8 12.55 7.55 13 7 13Z" />
</svg>

<?xml version="1.0" encoding="UTF-8"?>
<svg width="24" height="24" viewBox="0 0 24 24" xmlns="http://www.w3.org/2000/svg">
 <path d="m16.19 2h-8.37c-3.64 0-5.81 2.17-5.81 5.81v8.37c0 3.64 2.17 5.81 5.81 5.81h8.37c3.64 0 5.81-2.17 5.81-5.81v-8.37c0-3.64-2.17-5.81-5.81-5.81z" opacity=".4"/>
 <path d="m16 9.24h2c0.55 0 1-0.45 1-1v-0.23999c0-1.66-1.34-3-3-3h-8c-1.66 0-3 1.34-3 3v0.5c0 0.55 0.45 1 1 1h1.34c1.31 0 2.5 0.94 2.63 2.25 0.15 1.5-1.02 2.76-2.49 2.76h-1.48c-0.55 0-1 0.45-1 1v0.5c0 1.66 1.34 3 3 3h8c1.66 0 3-1.34 3-3v-0.25c0-0.55-0.45-1-1-1h-2c-0.41 0-0.75-0.34-0.75-0.75s0.34-0.75 0.75-0.75h2c0.55 0 1-0.45 1-1v-0.51c0-0.55-0.45-1-1-1h-2c-0.41 0-0.75-0.33-0.75-0.75s0.34-0.76001 0.75-0.76001z"/>
 <path d="m7 13h-1c-0.55 0-1-0.45-1-1s0.45-1 1-1h1c0.55 0 1 0.45 1 1s-0.45 1-1 1z"/>
</svg>
